!!!SOCIAL_FUNCTION:	bird dance songs
!!!PDT:	1956
!!!OTL: No_122_Quail_Dance_Song_(a).krn
!!!LANG: Non-Tone
!!!LING_GROUP: Muskogean
!!!REG: Florida
**kern
*staff1
=1-
=
*clefF4
*k[b-e-a-]
*M2/4
8.B-\L
16A-\Jk
4G\
=2
4.G\
8r
=3
8.B-\L
16A-\Jk
4G\
=4
4B-\
4G\
=5
4E-\
4A-\
=6
4G\
4E-\
=7
4E-\
4r
=8||
*M3/4
2E-\
4A-\
=9||
*M2/4
4G\
4E-\
=10
4.E-\
8r
=11:|!
*M3/4
2E-\
4A-\
=12
4G\
4E-\
4E-\
=13
[4B-\
8.B-\L]
16A-\Jk
4G\
=14
4B-\
2r
=15||
*M2/4
8.B-\L
16A-\Jk
4G\
=16
4B-\
8A-\
8r
=17||
*M5/4
8E-\L
8E-\J
4E-\
8A-\
8r
4.G\
8r
=18
8E-\L
8E-\J
4E-\
8A-\
8r
4.G\
8r
=19||
*M2/4
8E-\L
8E-\J
4E-\
=20
8.B-\L
16A-\Jk
4G\
=21
4B-\
8A-\
8r
=22
4G\
4r
==:|!
*-
